symbols/web/hotel_class/materialsymbolsrounded/hotel_class_wght200grad200_20px.svg

<svg xmlns="http://www.w3.org/2000/svg" height="20" width="20"><path d="M9.167 10.854Zm-3.355 5.979q-.333.209-.614-.01-.281-.219-.198-.573l1.25-4.146L2.979 9.75q-.312-.25-.198-.604.115-.354.531-.354h4.021l1.334-4.354q.062-.167.198-.282.135-.114.302-.114.166 0 .302.114.135.115.198.282L11 8.792h4.021q.417 0 .531.354.115.354-.198.604l-3.271 2.354 1.25 4.146q.084.354-.198.573-.281.219-.614.01l-3.354-2.562Zm1.48-2.916 1.875-1.479 1.875 1.479-.667-2.417 1.792-1.229H9.896l-.729-2.459-.729 2.459H6.167L7.958 11.5Zm8.604 2.625-.958-.73L14 12.583l2.188-1.604h.791q-.167 0 .209.375.374.375.083.584l-1.459 1.041.876 3q.062.292-.428.365-.489.073-.364.198Zm-3.688-9.417-.5-1.625.334-1.062q.062-.146.187-.25.125-.105.292-.105.187 0 .312.084.125.083.188.271l.791 2.687Z"/></svg>

<svg xmlns="http://www.w3.org/2000/svg" height="20" width="20"><path d="M9.167 10.854ZM5.812 16.833Q5.479 17.042 5.198 16.823Q4.917 16.604 5 16.25L6.25 12.104L2.979 9.75Q2.667 9.5 2.781 9.146Q2.896 8.792 3.312 8.792H7.333L8.667 4.438Q8.729 4.271 8.865 4.156Q9 4.042 9.167 4.042Q9.333 4.042 9.469 4.156Q9.604 4.271 9.667 4.438L11 8.792H15.021Q15.438 8.792 15.552 9.146Q15.667 9.5 15.354 9.75L12.083 12.104L13.333 16.25Q13.417 16.604 13.135 16.823Q12.854 17.042 12.521 16.833L9.167 14.271ZM7.292 13.917 9.167 12.438 11.042 13.917 10.375 11.5 12.167 10.271H9.896L9.167 7.812L8.438 10.271H6.167L7.958 11.5ZM15.896 16.542 14.938 15.812 14 12.583 16.188 10.979H16.979Q16.812 10.979 17.188 11.354Q17.562 11.729 17.271 11.938L15.812 12.979L16.688 15.979Q16.75 16.271 16.26 16.344Q15.771 16.417 15.896 16.542ZM12.208 7.125 11.708 5.5 12.042 4.438Q12.104 4.292 12.229 4.188Q12.354 4.083 12.521 4.083Q12.708 4.083 12.833 4.167Q12.958 4.25 13.021 4.438L13.812 7.125Z"/></svg>
